vendor/shopware/storefront/Resources/app/storefront/dist/assets/icon/solid/image.svg

<svg xmlns="http://www.w3.org/2000/svg" width="16" height="16" viewBox="0 0 16 16">
  <path fill="#758CA3" fill-rule="evenodd" d="M2,11.3097033 L5.2260427,7.36676221 C5.60068006,6.90887211 6.28876691,6.87455335 6.70710678,7.29289322 L8.29643801,8.88222445 L11.2317787,5.3598156 C11.6082272,4.9080774 12.2913058,4.87709226 12.7071068,5.29289322 L14,6.58578644 L14,3 C14,2.44771525 13.5522847,2 13,2 L3,2 C2.44771525,2 2,2.44771525 2,3 L2,11.3097033 Z M2.49487193,13.863231 C2.64311158,13.9501623 2.81573568,14 3,14 L13,14 C13.5522847,14 14,13.5522847 14,13 L14,9.41421356 L12.0671984,7.48141191 L7.76822128,12.6401844 C7.4146572,13.0644613 6.7840925,13.1217854 6.3598156,12.7682213 C5.9355387,12.4146572 5.87821464,11.7840925 6.23177872,11.3598156 L7.01078932,10.4250029 L6.07423742,9.48845098 L2.49487193,13.863231 Z M3,-8.8817842e-16 L13,-8.8817842e-16 C14.6568542,-1.19253761e-15 16,1.34314575 16,3 L16,13 C16,14.6568542 14.6568542,16 13,16 L3,16 C1.34314575,16 -6.85272294e-16,14.6568542 -8.8817842e-16,13 L-8.8817842e-16,3 C-1.09108455e-15,1.34314575 1.34314575,-5.83819232e-16 3,-8.8817842e-16 Z M4.5,6 C3.67157288,6 3,5.32842712 3,4.5 C3,3.67157288 3.67157288,3 4.5,3 C5.32842712,3 6,3.67157288 6,4.5 C6,5.32842712 5.32842712,6 4.5,6 Z"/>
</svg>

<svg xmlns="http://www.w3.org/2000/svg" width="16" height="16" viewBox="0 0 16 16"><path fill="#758CA3" fill-rule="evenodd" d="m2 11.3097 3.226-3.943c.3747-.4578 1.0628-.4921 1.4811-.0738l1.5893 1.5893 2.9354-3.5224c.3764-.4517 1.0595-.4827 1.4753-.067L14 6.5859V3c0-.5523-.4477-1-1-1H3c-.5523 0-1 .4477-1 1v8.3097zm.4949 2.5535A.9954.9954 0 0 0 3 14h10c.5523 0 1-.4477 1-1V9.4142l-1.9328-1.9328-4.299 5.1588c-.3535.4243-.9841.4816-1.4084.128-.4243-.3535-.4816-.9841-.128-1.4084l.779-.9348-.9366-.9365-3.5793 4.3747zM3 0h10c1.6569 0 3 1.3431 3 3v10c0 1.6569-1.3431 3-3 3H3c-1.6569 0-3-1.3431-3-3V3c0-1.6569 1.3431-3 3-3zm1.5 6C3.6716 6 3 5.3284 3 4.5S3.6716 3 4.5 3 6 3.6716 6 4.5 5.3284 6 4.5 6z"/></svg>
